assets/images/avatars/user/custom-avatars/season-f1/wrenches-pink600.svg

<svg width="52" height="52" viewBox="0 0 52 52" fill="none" xmlns="http://www.w3.org/2000/svg">
<g clip-path="url(#clip0_26_81647)">
<rect width="52" height="52" fill="#CF4CD9"/>
<path d="M26 52C40.3594 52 52 40.3594 52 26C52 11.6406 40.3594 0 26 0C11.6406 0 0 11.6406 0 26C0 40.3594 11.6406 52 26 52Z" fill="#CF4CD9"/>
<path d="M25.9999 46.7669C37.4691 46.7669 46.7667 37.4693 46.7667 26.0002C46.7667 14.531 37.4691 5.2334 25.9999 5.2334C14.5308 5.2334 5.23315 14.531 5.23315 26.0002C5.23315 37.4693 14.5308 46.7669 25.9999 46.7669Z" fill="#CF4CD9" stroke="#002140" stroke-width="0.65" stroke-miterlimit="10"/>
<path d="M18.3162 18.3368L18.2781 18.3611C15.5957 18.9045 12.7334 17.8281 11.1758 15.4433C9.62526 13.0725 9.81563 10.0959 11.4216 7.94309L11.4908 7.89809L15.2496 13.6436L15.4088 13.6678L19.4203 11.1585L19.441 11.02L15.7272 5.34031V5.30918C18.3577 4.83846 21.1335 5.92178 22.6599 8.25804C24.1758 10.5735 24.0305 13.4671 22.5249 15.606L22.4626 15.6372L26.0899 21.3273L26.2041 21.4103L25.4669 22.4106L23.1929 25.5049L22.9125 25.2972L18.3162 18.3368Z" fill="#F68DFE"/>
<path d="M29.859 35.8359L26.1487 30.1804L26.0103 30.08L28.9937 25.9717L29.326 26.2105L33.9882 33.1189L34.0262 33.0947C36.7086 32.534 39.5744 33.5966 41.1492 35.9709C42.7137 38.3314 42.5406 41.3114 40.9485 43.4711L40.8793 43.5161L37.0859 37.7914L36.9232 37.7672L32.929 40.3008L32.9083 40.4392L36.6601 46.1016V46.1293C34.0331 46.6139 31.2469 45.5513 29.7067 43.222C28.1769 40.9134 28.3084 38.0199 29.8002 35.874L29.859 35.8359Z" fill="#F68DFE"/>
<path d="M22.0335 35.5599L22.0716 35.5876C23.5945 37.8166 23.6464 40.8139 21.9712 43.1225C20.303 45.4172 17.4129 46.3621 14.7686 45.7114L14.7029 45.6629L18.7386 40.1009L18.7005 39.9452L14.8206 37.2489L14.6821 37.2835L10.688 42.7833L10.6603 42.8006C9.23083 40.5855 9.21353 37.6643 10.8541 35.4007C12.4808 33.1579 15.2774 32.2061 17.8698 32.7702L17.9252 32.8152L25.4705 22.4146H25.467L26.2042 21.4108L30.2883 15.8557L30.2503 15.828C28.7447 13.5887 28.7101 10.5913 30.3991 8.29315C32.0778 6.00534 34.9782 5.08121 37.6156 5.74574L37.6848 5.7942L33.611 11.332L33.6491 11.4878L37.5152 14.2047L37.6536 14.1736L41.6789 8.6981L41.7031 8.68079H41.7066C43.1257 10.9028 43.1222 13.8275 41.4678 16.0772C39.8272 18.3131 37.0237 19.2476 34.4382 18.6696L34.3829 18.6246L29.2915 25.5538H29.295L28.9939 25.9726L26.0104 30.0809L22.0335 35.5599Z" fill="#F68DFE"/>
<path d="M30.2502 15.828C28.7446 13.5887 28.71 10.5913 30.399 8.29315C32.0776 6.00534 34.9781 5.08121 37.6154 5.74574" stroke="#002140" stroke-width="0.65" stroke-linecap="round" stroke-linejoin="round"/>
<path d="M41.6893 8.65625C41.6893 8.65625 41.6997 8.67356 41.7031 8.68048H41.7066C43.1257 10.9025 43.1222 13.8272 41.4678 16.0769C39.8272 18.3128 37.0237 19.2473 34.4382 18.6693" stroke="#002140" stroke-width="0.65" stroke-linecap="round" stroke-linejoin="round"/>
<path d="M30.3125 15.8203L30.2883 15.8549L26.2042 21.41L25.467 22.4103L23.193 25.5045L22.968 25.8126" stroke="#002140" stroke-width="0.65" stroke-linecap="round" stroke-linejoin="round"/>
<path d="M37.7021 5.76953L37.6848 5.79376L33.6111 11.3316" stroke="#002140" stroke-width="0.65" stroke-linecap="round" stroke-linejoin="round"/>
<path d="M34.3828 18.624L29.2914 25.5532L26.7717 28.9797" stroke="#002140" stroke-width="0.65" stroke-linecap="round" stroke-linejoin="round"/>
<path d="M41.6789 8.69727L37.6536 14.1728" stroke="#002140" stroke-width="0.65" stroke-linecap="round" stroke-linejoin="round"/>
<path d="M37.5153 14.2043L33.6492 11.4873" stroke="#002140" stroke-width="0.65" stroke-linecap="round" stroke-linejoin="round"/>
<path d="M22.0716 35.5869C23.5944 37.8159 23.6464 40.8132 21.9712 43.1218C20.3029 45.4165 17.4129 46.3614 14.7686 45.7107" stroke="#002140" stroke-width="0.65" stroke-linecap="round" stroke-linejoin="round"/>
<path d="M10.6776 42.8248C10.6776 42.8248 10.6672 42.8075 10.6603 42.8006C9.23083 40.5855 9.21353 37.6643 10.8541 35.4007C12.4808 33.1579 15.2774 32.2061 17.8698 32.7703" stroke="#002140" stroke-width="0.65" stroke-linecap="round" stroke-linejoin="round"/>
<path d="M22.0093 35.5939L22.0335 35.5593L26.0103 30.0803L28.9938 25.972L29.2949 25.5566" stroke="#002140" stroke-width="0.65" stroke-linecap="round" stroke-linejoin="round"/>
<path d="M14.6855 45.6869L14.7028 45.6626L18.7385 40.1006" stroke="#002140" stroke-width="0.65" stroke-linecap="round" stroke-linejoin="round"/>
<path d="M17.925 32.8148L25.4703 22.4141" stroke="#002140" stroke-width="0.65" stroke-linecap="round" stroke-linejoin="round"/>
<path d="M10.688 42.7829L14.6821 37.2832" stroke="#002140" stroke-width="0.65" stroke-linecap="round" stroke-linejoin="round"/>
<path d="M14.8206 37.248L18.7005 39.9443" stroke="#002140" stroke-width="0.65" stroke-linecap="round" stroke-linejoin="round"/>
<path d="M18.2781 18.3613C15.5957 18.9047 12.7334 17.8283 11.1758 15.4436C9.62526 13.0727 9.81563 10.0962 11.4216 7.94336" stroke="#002140" stroke-width="0.65" stroke-linecap="round" stroke-linejoin="round"/>
<path d="M15.6929 5.31262C15.6929 5.31262 15.7136 5.30918 15.724 5.30918C18.3579 4.83846 21.1337 5.92178 22.6601 8.25804C24.1761 10.5735 24.0307 13.4671 22.5251 15.606" stroke="#002140" stroke-width="0.65" stroke-linecap="round" stroke-linejoin="round"/>
<path d="M18.2954 18.3027L18.3162 18.3373L22.9126 25.2977" stroke="#002140" stroke-width="0.65" stroke-linecap="round" stroke-linejoin="round"/>
<path d="M11.4771 7.87402L11.4909 7.89825L15.2497 13.6437" stroke="#002140" stroke-width="0.65" stroke-linecap="round" stroke-linejoin="round"/>
<path d="M22.4626 15.6367L26.0899 21.3268" stroke="#002140" stroke-width="0.65" stroke-linecap="round" stroke-linejoin="round"/>
<path d="M15.7273 5.34082L19.4411 11.0205" stroke="#002140" stroke-width="0.65" stroke-linecap="round" stroke-linejoin="round"/>
<path d="M19.4204 11.1582L15.4089 13.6675" stroke="#002140" stroke-width="0.65" stroke-linecap="round" stroke-linejoin="round"/>
<path d="M34.0264 33.0951C36.7087 32.5344 39.5746 33.597 41.1494 35.9713C42.7138 38.3318 42.5407 41.3119 40.9486 43.4716" stroke="#002140" stroke-width="0.65" stroke-linecap="round" stroke-linejoin="round"/>
<path d="M36.6914 46.1259C36.6914 46.1259 36.6741 46.1294 36.6637 46.1294C34.0332 46.6139 31.247 45.5513 29.7068 43.222C28.177 40.9134 28.3085 38.0199 29.8003 35.874" stroke="#002140" stroke-width="0.65" stroke-linecap="round" stroke-linejoin="round"/>
<path d="M34.0126 33.154L33.9883 33.1194L29.3262 26.2109" stroke="#002140" stroke-width="0.65" stroke-linecap="round" stroke-linejoin="round"/>
<path d="M40.8932 43.5409L40.8793 43.5167L37.0859 37.792" stroke="#002140" stroke-width="0.65" stroke-linecap="round" stroke-linejoin="round"/>
<path d="M29.8627 35.8396L29.8593 35.8361L26.1489 30.1807" stroke="#002140" stroke-width="0.65" stroke-linecap="round" stroke-linejoin="round"/>
<path d="M36.6603 46.1019L32.9084 40.4395" stroke="#002140" stroke-width="0.65" stroke-linecap="round" stroke-linejoin="round"/>
<path d="M32.9292 40.3011L36.9233 37.7676" stroke="#002140" stroke-width="0.65" stroke-linecap="round" stroke-linejoin="round"/>
</g>
<defs>
<clipPath id="clip0_26_81647">
<rect width="52" height="52" fill="white"/>
</clipPath>
</defs>
</svg>

<svg xmlns="http://www.w3.org/2000/svg" width="52" height="52" fill="none" viewBox="0 0 52 52"><g clip-path="url(#a)"><path fill="#cf4cd9" d="M0 0h52v52H0z"/><path fill="#cf4cd9" d="M26 52c14.36 0 26-11.64 26-26S40.36 0 26 0 0 11.64 0 26s11.64 26 26 26"/><path fill="#cf4cd9" stroke="#002140" stroke-miterlimit="10" stroke-width=".65" d="M26 46.767c11.47 0 20.767-9.298 20.767-20.767S37.469 5.233 26 5.233C14.53 5.233 5.233 14.531 5.233 26c0 11.47 9.298 20.767 20.767 20.767Z"/><path fill="#f68dfe" d="m18.316 18.337-.038.024c-2.682.543-5.545-.533-7.102-2.918-1.55-2.37-1.36-5.347.246-7.5l.069-.045 3.759 5.746.159.024 4.011-2.51.021-.138-3.714-5.68v-.03c2.63-.472 5.407.612 6.933 2.948 1.516 2.316 1.37 5.21-.135 7.348l-.062.031 3.627 5.69.114.083-.737 1-2.274 3.095-.28-.208zm11.543 17.499-3.71-5.656-.139-.1 2.984-4.108.332.238 4.662 6.909.038-.024c2.683-.561 5.548.502 7.123 2.876 1.565 2.36 1.392 5.34-.2 7.5l-.07.045-3.793-5.725-.163-.024-3.994 2.534-.02.138 3.751 5.663v.027c-2.627.485-5.413-.578-6.953-2.907-1.53-2.309-1.399-5.202.093-7.348z"/><path fill="#f68dfe" d="m22.034 35.56.038.028c1.523 2.229 1.574 5.226-.1 7.535-1.669 2.294-4.56 3.24-7.203 2.588l-.066-.048 4.036-5.562-.038-.156-3.88-2.696-.139.034-3.994 5.5-.028.018c-1.43-2.215-1.446-5.137.194-7.4 1.627-2.243 4.423-3.195 7.016-2.63l.055.044 7.546-10.4h-.004l.737-1.004 4.084-5.555-.038-.028c-1.505-2.24-1.54-5.237.15-7.535 1.678-2.288 4.578-3.212 7.216-2.547l.069.048-4.074 5.538.038.156 3.866 2.717.139-.031 4.025-5.476.024-.017h.004a6.52 6.52 0 0 1-.24 7.396c-1.64 2.236-4.443 3.17-7.029 2.593l-.055-.045-5.092 6.929h.004l-.301.419-2.984 4.108z"/><path stroke="#002140" stroke-linecap="round" stroke-linejoin="round" stroke-width=".65" d="M30.25 15.828c-1.505-2.24-1.54-5.237.149-7.535 1.679-2.288 4.58-3.212 7.216-2.547m4.075 2.91.013.024h.004a6.52 6.52 0 0 1-.24 7.397c-1.64 2.236-4.443 3.17-7.029 2.592m-4.125-2.849-.025.035-4.084 5.555-.737 1-2.274 3.095-.225.308M37.702 5.77l-.017.024-4.074 5.538m.772 7.292-5.092 6.93-2.52 3.426M41.679 8.697l-4.025 5.476m-.139.031-3.866-2.717m-11.577 24.1c1.522 2.229 1.574 5.226-.1 7.535-1.67 2.294-4.56 3.24-7.203 2.589m-4.091-2.886s-.01-.018-.018-.024c-1.43-2.215-1.446-5.137.194-7.4 1.627-2.243 4.423-3.195 7.016-2.63m4.14 2.823.023-.035 3.977-5.479 2.984-4.108.3-.415m-14.608 20.13.017-.024 4.035-5.562m-.813-7.286 7.545-10.4M10.688 42.783l3.994-5.5m.138-.035 3.88 2.696m-.422-21.583c-2.682.544-5.545-.533-7.102-2.917-1.55-2.371-1.36-5.348.246-7.5m4.271-2.631s.02-.004.031-.004c2.634-.47 5.41.613 6.936 2.949 1.516 2.316 1.37 5.21-.135 7.348m-4.23 2.697.021.034 4.597 6.96M11.477 7.874l.014.024 3.759 5.746m7.213 1.993 3.627 5.69M15.727 5.34l3.714 5.68m-.021.138-4.011 2.51m18.617 19.427c2.683-.56 5.549.502 7.123 2.876 1.565 2.36 1.392 5.34-.2 7.5m-4.258 2.655s-.017.003-.027.003c-2.63.485-5.417-.578-6.957-2.907-1.53-2.309-1.399-5.202.093-7.348m4.213-2.72-.025-.035-4.662-6.908M40.893 43.54l-.014-.023-3.793-5.725m-7.223-1.952-.004-.004-3.71-5.655M36.66 46.102l-3.752-5.662m.022-.139 3.993-2.533"/></g><defs><clipPath id="a"><path fill="#fff" d="M0 0h52v52H0z"/></clipPath></defs></svg>
